X: 34
T:Crosby Square
K:A
M:6/8
E|A3 Bcd|c3 A2 a|gef ecd|B3 B2 E|A3 Bcd|c3 A2 a|gef ecd|B3 B2:|
|: c|d f2 c2 B| c e2 B2 c| dcB cBA|G/2A/2BG E2 f| efB B2 A| A3 A3:|

